X:1074
T:Teddy Bears Picnic, The 
C:Joe Buchanan's Scottish Tome - Page 425.0
I:425 0
R:Two-step
Z:Carl Allison
L:1/8
M:4/4
K:C
e | aza ac'b | azc' b z E | Azc BcB | Azc B z E |
[0T[c3e6] B3 | [e6A3] G2 | [e6F3] ^E2 | [e6D3] [Ee] z E |]
|: Azc BcB | Azc Bzc | ABc Bzc | A3- A2 z G |
[K:F] cze ded | cze dze | cde dze | c3- c2 z g |
azg azg | deg e2 d | dzc dzc | GAc A2 G |
[1 A2 c G2 c | ABc G2 e | d6 | cfe dcB :|3 !fine!c2 |]
[2 A2 c G2 c | ABc G2 e | d6 | cge geg |]
azg a3- | age geg | dzB d3- | dGA BcG |
B3- B2 A | G3- G2 e | dcd egb | age geg |
azg a3- | age geg | dzB d3- | dGA Bdc |
[1 _e3- ecd | _e3- ecd | edc az^f | gge geg :|
[2 c3- cAB | c3- cAB | cBA az^d | e2 zzz2 E |]
%%newpage
Azc BcB | Azc Bzc | ABc Bzc | A3- A z G |
cze ded | cze dze | cde dze | c3- c z g |
azg azg | deg e2 d | dzc dzc | GAc A2 G |
A2 c G2 c | ABc G2 e | d6 | c3- c z E |]
[CA]3 A3 | ^G3 A3 | dzA c3- | czA ^GzA |
dzA czA |  dcA ^G2 A | czG B3- | BCD EDE ||
C3 B3 | F3 G3 | ezG d3- | dzd ^czd |
e3 d3 | c3 B3 | Azc c3- | cC=D EFG |
[CA]3 A3 | ^G3 A3 | dzA c3- | czA ^GzA |
dzA czA | dcA G2 F | f6- | f3  f z F |
fze fze | fef gfd | czB czd | czF G2 A |
B3 c2 d | A3 G3 | F6- | F3 E |]
W:Errata: Added a "[0" at beggining of second line and closing brace at end of second line.

